X:3321
T:Quickstep  Clarinet Primo
A:Wyresdale, Lancashire
B:E and J Winder, 1835-41
L:1/8
M:6/8
O:England
Z:Richard Robinson <URL:http://www.qualmograph.org.uk/contact.html>
K:C
G | \
e2e dcd | c2c cde | fdf ece | d2d def | \
g2g gfe | a2a agf | efe dcd | c3 c2 ::
e | \
dfb  dfb  | egc' egc' | dfb dfb | egc' egc' | \
afa c'bc' | geg  c'ba | gag gfe | e3 d2 ::
G | \
c2e e2g | c2e e2g | d2f B2d | c2e G2G |\
c2e e2g | c2e e2g | d2g B2d | c3 c2 ::

